X:3
T:Tipling John. THO5.003
M:6/8
L:1/8
B:Thompson's Complete Collection of 200 Favourite Dances Vol.5
F:https://www.libraryofdance.org/manuals/1780c-Thompson-Compleat-5.pdf
Z:vmp. Peter Dunk 2024
U:w=!wedge!
Q:3/8=110
K:D
d|d2D D2d|dcB A2A|G2F E2D|Ddd d2d|
d2D D2d|dcB e2d|cBA EA^G|A3-A2:|
|:g|(fa)wA A2g|(fa)wA A2c|dcB cB^A|B3-B2 c|
dfd B2B|ged c2A|d2G A2A|D3-D2:|
W:
W:The 1st Couple set to the 2nd Lady and hands 3 around ./.
W:The same to the 2nd Gent ./:Lead down the middle, up again and cast off :/.
W:Allemand with your partner :/:

